icon/gr/aid.svg

<svg xmlns="http://www.w3.org/2000/svg" width="24" height="24"><path fill="none" stroke="#000" stroke-width="2" d="M1 22h22V6H1v16ZM8 6h8V2H8v4Zm0 8h8m-4-4v8"/></svg>

<svg xmlns="http://www.w3.org/2000/svg" viewBox="0 0 24 24" height="1em" width="1em">
  <path fill="none" stroke="#000" stroke-width="2" d="M1,22 L23,22 L23,6 L1,6 L1,22 Z M8,6 L16,6 L16,2 L8,2 L8,6 Z M8,14 L16,14 M12,10 L12,18"/>
</svg>
